02/src/img/service/service-02.svg

<svg data-name="Layer 1" xmlns="http://www.w3.org/2000/svg" width="831.064" height="647">
  <path d="M31.946 0A31.982 31.982 0 000 31.946v583.109A31.982 31.982 0 0031.946 647h319.397a31.982 31.982 0 0031.946-31.945V31.945A31.982 31.982 0 00351.343 0z" fill="#e6e6e6" />
  <path d="M42.387 18.15A24.264 24.264 0 0018.15 42.387v562.226a24.264 24.264 0 0024.237 24.237h298.515a24.264 24.264 0 0024.237-24.237V42.387a24.264 24.264 0 00-24.237-24.237z" fill="#fff" />
  <path d="M335.778 136.647H47.51a5.345 5.345 0 01-5.338-5.338V59.802a5.345 5.345 0 015.338-5.338h288.268a5.345 5.345 0 015.339 5.338v71.507a5.345 5.345 0 01-5.339 5.338zM47.51 56.599a3.206 3.206 0 00-3.203 3.203v71.507a3.206 3.206 0 003.203 3.203h288.268a3.206 3.206 0 003.203-3.203V59.802a3.206 3.206 0 00-3.203-3.203zm288.268 362.977H47.51a5.345 5.345 0 01-5.338-5.338V281.874a5.345 5.345 0 015.338-5.338h288.268a5.345 5.345 0 015.339 5.338v132.364a5.345 5.345 0 01-5.339 5.338zM47.51 278.671a3.206 3.206 0 00-3.203 3.203v132.364a3.206 3.206 0 003.203 3.203h288.268a3.206 3.206 0 003.203-3.203V281.874a3.206 3.206 0 00-3.203-3.203zm286.133-30.988h-128.12a5.345 5.345 0 01-5.338-5.338v-71.507a5.345 5.345 0 015.339-5.338h128.119a5.345 5.345 0 015.338 5.338v71.507a5.345 5.345 0 01-5.338 5.338zm-128.12-80.048a3.206 3.206 0 00-3.202 3.203v71.507a3.206 3.206 0 003.203 3.203h128.119a3.206 3.206 0 003.203-3.203v-71.507a3.206 3.206 0 00-3.203-3.203zM175.63 592.536H47.51a5.345 5.345 0 01-5.338-5.338v-133.43a5.345 5.345 0 015.338-5.34h128.12a5.345 5.345 0 015.338 5.34v133.43a5.345 5.345 0 01-5.338 5.338zM47.51 450.564a3.206 3.206 0 00-3.203 3.203v133.431a3.206 3.206 0 003.203 3.203h128.12a3.206 3.206 0 003.203-3.203v-133.43a3.206 3.206 0 00-3.203-3.204zm286.133 141.972h-128.12a5.345 5.345 0 01-5.338-5.338v-133.43a5.345 5.345 0 015.339-5.34h128.119a5.345 5.345 0 015.338 5.34v133.43a5.345 5.345 0 01-5.338 5.338zm-128.12-141.972a3.206 3.206 0 00-3.202 3.203v133.431a3.206 3.206 0 003.203 3.203h128.119a3.206 3.206 0 003.203-3.203v-133.43a3.206 3.206 0 00-3.203-3.204z" fill="#e6e6e6" />
  <circle cx="90.166" cy="323.425" r="21.745" fill="#e6e6e6" />
  <path d="M140.387 308.929a3.624 3.624 0 000 7.248h170.857a3.624 3.624 0 000-7.248zm0 21.745a3.624 3.624 0 00-.015 7.248h73.535a3.624 3.624 0 100-7.248zm-66.9 34.764c-2.757 0-5 1.626-5 3.625s2.243 3.624 5 3.624h235.729c2.757 0 5-1.626 5-3.624s-2.243-3.625-5-3.625zm0 21.746c-2.757 0-5 1.626-5 3.624s2.243 3.624 5 3.624h235.729c2.757 0 5-1.626 5-3.624s-2.243-3.624-5-3.624z" fill="#e6e6e6" />
  <circle cx="92.301" cy="92.812" r="21.745" fill="#e6e6e6" />
  <path d="M142.523 78.315a3.624 3.624 0 000 7.248h170.856a3.624 3.624 0 10.015-7.248h-.015zm0 21.745a3.624 3.624 0 000 7.248h73.52a3.624 3.624 0 00.015-7.248h-.015zm32.993 147.636H55.33l28.284-48.99a5.776 5.776 0 0110.004 0l12.083 20.928 20.545-35.584a7.231 7.231 0 0112.525 0zm-116.488-2.135h112.79l-34.898-60.444a5.095 5.095 0 00-8.826 0L105.7 223.904l-13.932-24.13a3.64 3.64 0 00-6.305 0zm270.231 2.135H209.072l28.284-48.99a5.776 5.776 0 0110.004 0l12.083 20.928 20.544-35.584a7.231 7.231 0 0112.525 0zm-116.489-2.135h112.79l-34.897-60.444a5.095 5.095 0 00-8.826 0l-22.394 38.787-13.933-24.13a3.64 3.64 0 00-6.304 0z" fill="#e6e6e6" />
  <path d="M175.63 247.683H47.51a5.345 5.345 0 01-5.338-5.338v-71.507a5.345 5.345 0 015.338-5.338h128.12a5.345 5.345 0 015.338 5.338v71.507a5.345 5.345 0 01-5.338 5.338zM47.51 167.635a3.206 3.206 0 00-3.203 3.203v71.507a3.206 3.206 0 003.203 3.203h128.12a3.206 3.206 0 003.203-3.203v-71.507a3.206 3.206 0 00-3.203-3.203zm27.3 308.31a3.624 3.624 0 100 7.248h73.52a3.624 3.624 0 100-7.248zm0 21.353a3.624 3.624 0 100 7.248h73.52a3.624 3.624 0 100-7.248zm36.76 67.722a22.813 22.813 0 1122.813-22.812 22.839 22.839 0 01-22.813 22.813zm0-43.49a20.678 20.678 0 1020.678 20.678 20.702 20.702 0 00-20.678-20.678zm194.773 43.49a3.624 3.624 0 100-7.248h-73.52a3.624 3.624 0 000 7.249zm0-21.353a3.624 3.624 0 100-7.248h-73.52a3.624 3.624 0 000 7.248zm-36.76-67.722a22.813 22.813 0 11-22.813 22.813 22.839 22.839 0 0122.813-22.813zm0 43.49a20.678 20.678 0 10-20.677-20.677 20.702 20.702 0 0020.677 20.677z" fill="#e6e6e6" />
  <circle cx="234.637" cy="132.193" r="54" fill="#f909a0" opacity=".3" style="isolation:isolate" />
  <circle cx="234.637" cy="132.193" r="36" fill="#f909a0" opacity=".3" style="isolation:isolate" />
  <circle cx="234.637" cy="132.193" r="25" fill="#f909a0" />
  <circle cx="111.637" cy="497.193" r="39.921" fill="#f909a0" opacity=".3" style="isolation:isolate" />
  <circle cx="111.637" cy="497.193" r="26.614" fill="#f909a0" opacity=".3" style="isolation:isolate" />
  <circle cx="111.637" cy="497.193" r="18.482" fill="#f909a0" />
  <circle cx="277.637" cy="341.193" r="45.921" fill="#f909a0" opacity=".3" style="isolation:isolate" />
  <circle cx="277.637" cy="341.193" r="30.614" fill="#f909a0" opacity=".3" style="isolation:isolate" />
  <circle cx="277.637" cy="341.193" r="21.26" fill="#f909a0" />
  <path d="M491.097 412.494l-9.446 15.958a11.915 11.915 0 01-18.825 2.206 11.915 11.915 0 011.59-17.931l15.366-11.11c14.753-19.972 23.231-53.915 30.455-90.649l30.022 3.521c-7.738 30.045-26.242 63.356-49.162 98.005z" fill="#ffb8b8" />
  <path d="M494.817 321.682l48.818 13.844v-85.25l-6.48 2.097a37.5 37.5 0 00-24.166 24.226z" fill="#e6e6e6" />
  <path d="M594.64 626.978l-18.217-.728c-5.982-61.566-13.62-117.476-29.145-146.455-15.035 16.104-18.45 66.983-20.967 136.254h-17.65c-18.556-79.83-23.242-136.43 0-190.173h94.722z" fill="#2f2e41" />
  <path d="M527.411 628.395l-31.617 16.152a6.96 6.96 0 01-9.55-3.423 6.96 6.96 0 012.79-8.738l4.312-2.597 12.004-17.947 20.46-1.616 3.744 3.587a9.043 9.043 0 01-2.143 14.582zm64.249 15.135l-35.49.998a6.96 6.96 0 01-7.151-7.195 6.96 6.96 0 016.275-6.69l5.009-.493 18.552-11.046 19.169 7.334 1.838 4.847a9.043 9.043 0 01-8.201 12.246z" fill="#2f2e41" />
  <circle cx="555.577" cy="210.692" r="23.821" fill="#ffb8b8" />
  <path d="M594.64 248.819l-49.548 18.944c2.886-15.556 2.922-30.21-1.821-43.353l31.695-5.465c-2.66 13.664 5.58 22.946 19.673 29.874z" fill="#ffb8b8" />
  <path d="M615.04 439.72c-43.608 8.28-78.724 2.968-107.108-13.115 13.128-45.234 14.996-95.28 11.56-147.595a25.28 25.28 0 0115.352-24.907l12.434-5.284c6.704 15.234 22.155 6.455 38.618-5.1l20.342 8.988a17.327 17.327 0 0110.3 16.859c-4.067 69.493-9.534 143.996-1.497 170.154z" fill="#e6e6e6" />
  <path d="M629.613 429.52l-1.296 18.585a12.852 12.852 0 01-13.64 11.932 12.852 12.852 0 01-10.08-19.638l10.444-16.709c6.17-24.051 1.275-58.693-5.83-95.45l29.146-8.015c4.116 30.751-.52 68.573-8.744 109.294z" fill="#ffb8b8" />
  <path d="M582.846 195.216s4.453-9.797-7.125-14.25c0 0-9.797-16.032-29.391-5.344 0 0-13.36 5.344-13.36 19.594s-4.453 16.922-4.453 16.922 6.632-6.804 8.413-12.147 15.634-6.557 20.978-1.213 18.703 4.453 18.703 4.453l-.89 19.594s4.453-11.578 6.234-11.578 3.562-16.031.89-16.031z" fill="#2f2e41" />
  <path d="M648.558 320.953l-48.819 13.844v-85.25l6.481 2.097a37.5 37.5 0 0124.165 24.226zM224.969 644.458h606.096v2H224.969z" fill="#e6e6e6" />
  <path d="M682.64 483.062c13.25 18.73 16.75 125.33 17.53 159.5.02.77.04 1.5.05 2.19h33.54c.41-.73.79-1.45 1.15-2.19 19.88-39.24 8.85-86.29 8.27-88.67 1.51 7.48-5.32 29.16-13.04 50.16-4.71-64.57-44.98-117.73-47.5-120.99z" fill="#e6e6e6" /></svg>

<?xml version="1.0" encoding="UTF-8" standalone="no"?>
<!DOCTYPE svg PUBLIC "-//W3C//DTD SVG 1.1//EN" "http://www.w3.org/Graphics/SVG/1.1/DTD/svg11.dtd">
<svg width="100%" height="100%" viewBox="0 0 832 647" version="1.1" xmlns="http://www.w3.org/2000/svg" xmlns:xlink="http://www.w3.org/1999/xlink" xml:space="preserve" xmlns:serif="http://www.serif.com/" style="fill-rule:evenodd;clip-rule:evenodd;stroke-linejoin:round;stroke-miterlimit:2;">
    <g transform="matrix(1,0,0,1,50,0)">
        <path d="M31.946,0C14.428,0.02 0.02,14.428 0,31.946L0,615.055C0.02,632.572 14.429,646.98 31.946,647L351.343,647C368.86,646.98 383.269,632.572 383.289,615.055L383.289,31.945C383.269,14.428 368.86,0.02 351.343,0L31.946,0Z" style="fill:rgb(230,230,230);fill-rule:nonzero;"/>
    </g>
    <g transform="matrix(1,0,0,1,50,0)">
        <path d="M42.387,18.15C29.097,18.165 18.165,29.097 18.15,42.387L18.15,604.613C18.165,617.903 29.097,628.835 42.387,628.85L340.902,628.85C354.192,628.835 365.124,617.903 365.139,604.613L365.139,42.387C365.124,29.097 354.192,18.165 340.902,18.15L42.387,18.15Z" style="fill:white;fill-rule:nonzero;"/>
    </g>
    <g transform="matrix(1,0,0,1,50,0)">
        <path d="M335.778,136.647L47.51,136.647C44.583,136.643 42.176,134.236 42.172,131.309L42.172,59.802C42.176,56.875 44.583,54.468 47.51,54.464L335.778,54.464C338.705,54.467 341.113,56.875 341.117,59.802L341.117,131.309C341.113,134.236 338.705,136.644 335.778,136.647ZM47.51,56.599C45.754,56.601 44.309,58.046 44.307,59.802L44.307,131.309C44.309,133.065 45.754,134.51 47.51,134.512L335.778,134.512C337.534,134.51 338.979,133.065 338.981,131.309L338.981,59.802C338.979,58.046 337.534,56.601 335.778,56.599L47.51,56.599ZM335.778,419.576L47.51,419.576C44.583,419.572 42.176,417.165 42.172,414.238L42.172,281.874C42.176,278.947 44.583,276.54 47.51,276.536L335.778,276.536C338.705,276.539 341.113,278.947 341.117,281.874L341.117,414.238C341.113,417.165 338.705,419.573 335.778,419.576ZM47.51,278.671C45.754,278.673 44.309,280.118 44.307,281.874L44.307,414.238C44.309,415.994 45.754,417.439 47.51,417.441L335.778,417.441C337.534,417.439 338.979,415.994 338.981,414.238L338.981,281.874C338.979,280.118 337.534,278.673 335.778,278.671L47.51,278.671ZM333.643,247.683L205.523,247.683C202.596,247.679 200.189,245.272 200.185,242.345L200.185,170.838C200.189,167.911 202.597,165.503 205.524,165.5L333.643,165.5C336.57,165.504 338.977,167.911 338.981,170.838L338.981,242.345C338.977,245.272 336.57,247.679 333.643,247.683ZM205.523,167.635C203.767,167.637 202.323,169.082 202.321,170.838L202.321,242.345C202.323,244.101 203.768,245.546 205.524,245.548L333.643,245.548C335.399,245.546 336.844,244.101 336.846,242.345L336.846,170.838C336.844,169.082 335.399,167.637 333.643,167.635L205.523,167.635ZM175.63,592.536L47.51,592.536C44.583,592.532 42.176,590.125 42.172,587.198L42.172,453.768C42.175,450.84 44.582,448.432 47.51,448.428L175.63,448.428C178.558,448.432 180.965,450.84 180.968,453.768L180.968,587.198C180.964,590.125 178.557,592.532 175.63,592.536ZM47.51,450.564C45.754,450.566 44.309,452.011 44.307,453.767L44.307,587.198C44.309,588.954 45.754,590.399 47.51,590.401L175.63,590.401C177.386,590.399 178.831,588.954 178.833,587.198L178.833,453.768C178.832,452.011 177.387,450.566 175.63,450.564L47.51,450.564ZM333.643,592.536L205.523,592.536C202.596,592.532 200.189,590.125 200.185,587.198L200.185,453.768C200.188,450.84 202.596,448.431 205.524,448.428L333.643,448.428C336.571,448.432 338.978,450.84 338.981,453.768L338.981,587.198C338.977,590.125 336.57,592.532 333.643,592.536ZM205.523,450.564C203.767,450.566 202.323,452.011 202.321,453.767L202.321,587.198C202.323,588.954 203.768,590.399 205.524,590.401L333.643,590.401C335.399,590.399 336.844,588.954 336.846,587.198L336.846,453.768C336.845,452.011 335.4,450.566 333.643,450.564L205.523,450.564Z" style="fill:rgb(230,230,230);fill-rule:nonzero;"/>
    </g>
    <g transform="matrix(1,0,0,1,50,0)">
        <circle cx="90.166" cy="323.425" r="21.745" style="fill:rgb(230,230,230);"/>
    </g>
    <g transform="matrix(1,0,0,1,50,0)">
        <path d="M140.387,308.929C138.399,308.929 136.763,310.565 136.763,312.553C136.763,314.541 138.399,316.177 140.387,316.177L311.244,316.177C313.232,316.177 314.868,314.541 314.868,312.553C314.868,310.565 313.232,308.929 311.244,308.929L140.387,308.929ZM140.387,330.674C140.385,330.674 140.382,330.674 140.38,330.674C138.391,330.674 136.755,332.31 136.755,334.298C136.755,336.283 138.387,337.918 140.372,337.922L213.907,337.922C215.895,337.922 217.531,336.286 217.531,334.298C217.531,332.31 215.895,330.674 213.907,330.674L140.387,330.674ZM73.487,365.438C70.73,365.438 68.487,367.064 68.487,369.063C68.487,371.062 70.73,372.687 73.487,372.687L309.216,372.687C311.973,372.687 314.216,371.061 314.216,369.063C314.216,367.065 311.973,365.438 309.216,365.438L73.487,365.438ZM73.487,387.184C70.73,387.184 68.487,388.81 68.487,390.808C68.487,392.806 70.73,394.432 73.487,394.432L309.216,394.432C311.973,394.432 314.216,392.806 314.216,390.808C314.216,388.81 311.973,387.184 309.216,387.184L73.487,387.184Z" style="fill:rgb(230,230,230);fill-rule:nonzero;"/>
    </g>
    <g transform="matrix(1,0,0,1,50,0)">
        <circle cx="92.301" cy="92.812" r="21.745" style="fill:rgb(230,230,230);"/>
    </g>
    <g transform="matrix(1,0,0,1,50,0)">
        <path d="M142.523,78.315C140.535,78.315 138.899,79.951 138.899,81.939C138.899,83.927 140.535,85.563 142.523,85.563L313.379,85.563C313.382,85.563 313.384,85.563 313.387,85.563C315.375,85.563 317.011,83.927 317.011,81.939C317.011,79.954 315.379,78.319 313.394,78.315L142.523,78.315ZM142.523,100.06C140.535,100.06 138.899,101.696 138.899,103.684C138.899,105.672 140.535,107.308 142.523,107.308L216.043,107.308C216.045,107.308 216.048,107.308 216.05,107.308C218.039,107.308 219.675,105.672 219.675,103.684C219.675,101.699 218.043,100.064 216.058,100.06L142.523,100.06ZM175.516,247.696L55.33,247.696L83.614,198.706C84.645,196.921 86.555,195.818 88.616,195.818C90.677,195.818 92.587,196.921 93.618,198.706L105.701,219.634L126.246,184.05C127.536,181.815 129.928,180.434 132.509,180.434C135.089,180.434 137.481,181.815 138.771,184.05L175.516,247.696ZM59.028,245.561L171.818,245.561L136.92,185.117C136.011,183.542 134.325,182.568 132.507,182.568C130.689,182.568 129.003,183.542 128.094,185.117L105.7,223.904L91.768,199.774C91.119,198.649 89.914,197.954 88.616,197.954C87.317,197.954 86.112,198.649 85.463,199.774L59.028,245.561ZM329.259,247.696L209.072,247.696L237.356,198.706C238.387,196.921 240.297,195.818 242.358,195.818C244.419,195.818 246.329,196.921 247.36,198.706L259.443,219.634L279.987,184.05C281.277,181.815 283.669,180.434 286.249,180.434C288.83,180.434 291.222,181.815 292.512,184.05L329.259,247.696ZM212.77,245.561L325.56,245.561L290.663,185.117C289.754,183.542 288.068,182.568 286.25,182.568C284.432,182.568 282.746,183.542 281.837,185.117L259.443,223.904L245.51,199.774C244.86,198.65 243.657,197.955 242.358,197.955C241.059,197.955 239.856,198.65 239.206,199.774L212.77,245.561Z" style="fill:rgb(230,230,230);fill-rule:nonzero;"/>
    </g>
    <g transform="matrix(1,0,0,1,50,0)">
        <path d="M175.63,247.683L47.51,247.683C44.583,247.679 42.176,245.272 42.172,242.345L42.172,170.838C42.176,167.911 44.583,165.504 47.51,165.5L175.63,165.5C178.557,165.504 180.964,167.911 180.968,170.838L180.968,242.345C180.964,245.272 178.557,247.679 175.63,247.683ZM47.51,167.635C45.754,167.637 44.309,169.082 44.307,170.838L44.307,242.345C44.309,244.101 45.754,245.546 47.51,245.548L175.63,245.548C177.386,245.546 178.831,244.101 178.833,242.345L178.833,170.838C178.831,169.082 177.386,167.637 175.63,167.635L47.51,167.635ZM74.81,475.945C72.822,475.945 71.186,477.581 71.186,479.569C71.186,481.557 72.822,483.193 74.81,483.193L148.33,483.193C150.318,483.193 151.954,481.557 151.954,479.569C151.954,477.581 150.318,475.945 148.33,475.945L74.81,475.945ZM74.81,497.298C72.822,497.298 71.186,498.934 71.186,500.922C71.186,502.91 72.822,504.546 74.81,504.546L148.33,504.546C150.318,504.546 151.954,502.91 151.954,500.922C151.954,498.934 150.318,497.298 148.33,497.298L74.81,497.298ZM111.57,565.02C99.055,565.02 88.757,554.722 88.757,542.207C88.757,529.692 99.055,519.394 111.57,519.394C124.085,519.394 134.383,529.692 134.383,542.207C134.383,542.207 134.383,542.208 134.383,542.208C134.369,554.717 124.079,565.007 111.57,565.021L111.57,565.02ZM111.57,521.53C100.226,521.53 90.892,530.864 90.892,542.208C90.892,553.552 100.226,562.886 111.57,562.886C122.914,562.886 132.248,553.552 132.248,542.208C132.235,530.869 122.909,521.543 111.57,521.53ZM306.343,565.02C308.331,565.02 309.967,563.384 309.967,561.396C309.967,559.408 308.331,557.772 306.343,557.772L232.823,557.772C230.835,557.772 229.198,559.408 229.198,561.396C229.198,563.385 230.835,565.021 232.823,565.021L306.343,565.02ZM306.343,543.667C308.331,543.667 309.967,542.031 309.967,540.043C309.967,538.055 308.331,536.419 306.343,536.419L232.823,536.419C230.835,536.419 229.199,538.055 229.199,540.043C229.199,542.031 230.835,543.667 232.823,543.667L306.343,543.667ZM269.583,475.945C282.098,475.945 292.396,486.243 292.396,498.758C292.396,511.273 282.098,521.571 269.583,521.571C257.068,521.571 246.77,511.273 246.77,498.758C246.784,486.249 257.074,475.959 269.583,475.945ZM269.583,519.435C269.583,519.435 269.584,519.435 269.584,519.435C280.928,519.435 290.262,510.101 290.262,498.757C290.262,487.413 280.928,478.079 269.584,478.079C258.24,478.079 248.906,487.413 248.906,498.757C248.906,498.757 248.906,498.758 248.906,498.758C248.92,510.096 258.245,519.421 269.583,519.435Z" style="fill:rgb(230,230,230);fill-rule:nonzero;"/>
    </g>
    <g transform="matrix(1,0,0,1,50,0)">
        <circle cx="234.637" cy="132.193" r="54" style="fill:rgb(249,9,160);fill-opacity:0.3;"/>
    </g>
    <g transform="matrix(1,0,0,1,50,0)">
        <circle cx="234.637" cy="132.193" r="36" style="fill:rgb(249,9,160);fill-opacity:0.3;"/>
    </g>
    <g transform="matrix(1,0,0,1,50,0)">
        <circle cx="234.637" cy="132.193" r="25" style="fill:rgb(249,9,160);"/>
    </g>
    <g transform="matrix(1,0,0,1,50,0)">
        <circle cx="111.637" cy="497.193" r="39.921" style="fill:rgb(249,9,160);fill-opacity:0.3;"/>
    </g>
    <g transform="matrix(1,0,0,1,50,0)">
        <circle cx="111.637" cy="497.193" r="26.614" style="fill:rgb(249,9,160);fill-opacity:0.3;"/>
    </g>
    <g transform="matrix(1,0,0,1,50,0)">
        <circle cx="111.637" cy="497.193" r="18.482" style="fill:rgb(249,9,160);"/>
    </g>
    <g transform="matrix(1,0,0,1,50,0)">
        <circle cx="277.637" cy="341.193" r="45.921" style="fill:rgb(249,9,160);fill-opacity:0.3;"/>
    </g>
    <g transform="matrix(1,0,0,1,50,0)">
        <circle cx="277.637" cy="341.193" r="30.614" style="fill:rgb(249,9,160);fill-opacity:0.3;"/>
    </g>
    <g transform="matrix(1,0,0,1,50,0)">
        <circle cx="277.637" cy="341.193" r="21.26" style="fill:rgb(249,9,160);"/>
    </g>
    <g transform="matrix(1,0,0,1,50,0)">
        <path d="M491.097,412.494L481.651,428.452C479.509,432.071 475.603,434.297 471.398,434.297C468.167,434.297 465.07,432.983 462.826,430.658C460.682,428.438 459.483,425.469 459.483,422.382C459.483,418.562 461.32,414.966 464.416,412.727L479.782,401.617C494.535,381.645 503.013,347.702 510.237,310.968L540.259,314.489C532.521,344.534 514.017,377.845 491.097,412.494Z" style="fill:rgb(255,184,184);fill-rule:nonzero;"/>
    </g>
    <g transform="matrix(1,0,0,1,50,0)">
        <path d="M494.817,321.682L543.635,335.526L543.635,250.276L537.155,252.373C525.68,256.085 516.673,265.114 512.989,276.599L494.817,321.682Z" style="fill:rgb(230,230,230);fill-rule:nonzero;"/>
    </g>
    <g transform="matrix(1,0,0,1,50,0)">
        <path d="M594.64,626.978L576.423,626.25C570.441,564.684 562.803,508.774 547.278,479.795C532.243,495.899 528.828,546.778 526.311,616.049L508.661,616.049C490.105,536.219 485.419,479.619 508.661,425.876L603.383,425.876L594.64,626.978Z" style="fill:rgb(47,46,65);fill-rule:nonzero;"/>
    </g>
    <g transform="matrix(1,0,0,1,50,0)">
        <path d="M527.411,628.395L495.794,644.547C494.814,645.048 493.728,645.309 492.627,645.309C489.861,645.309 487.347,643.661 486.244,641.124C484.858,637.939 486.059,634.179 489.034,632.386L493.346,629.789L505.35,611.842L525.81,610.226L529.554,613.813C531.333,615.518 532.34,617.878 532.34,620.342C532.34,623.734 530.432,626.852 527.411,628.395ZM591.66,643.53L556.17,644.528C556.105,644.53 556.04,644.531 555.975,644.531C552.157,644.531 549.015,641.389 549.015,637.571C549.015,637.491 549.016,637.412 549.019,637.333C549.137,633.861 551.837,630.983 555.294,630.643L560.303,630.15L578.855,619.104L598.024,626.438L599.862,631.285C600.25,632.309 600.45,633.396 600.45,634.492C600.45,639.356 596.524,643.394 591.661,643.531L591.66,643.53Z" style="fill:rgb(47,46,65);fill-rule:nonzero;"/>
    </g>
    <g transform="matrix(1,0,0,1,50,0)">
        <circle cx="555.577" cy="210.692" r="23.821" style="fill:rgb(255,184,184);"/>
    </g>
    <g transform="matrix(1,0,0,1,50,0)">
        <path d="M594.64,248.819L545.092,267.763C547.978,252.207 548.014,237.553 543.271,224.41L574.966,218.945C572.306,232.609 580.546,241.891 594.639,248.819L594.64,248.819Z" style="fill:rgb(255,184,184);fill-rule:nonzero;"/>
    </g>
    <g transform="matrix(1,0,0,1,50,0)">
        <path d="M615.04,439.72C571.432,448 536.316,442.688 507.932,426.605C521.06,381.371 522.928,331.325 519.492,279.01C518.799,268.315 524.978,258.289 534.844,254.103L547.278,248.819C553.982,264.053 569.433,255.274 585.896,243.719L606.238,252.707C612.838,255.62 616.958,262.364 616.538,269.566C612.471,339.059 607.004,413.562 615.041,439.72L615.04,439.72Z" style="fill:rgb(230,230,230);fill-rule:nonzero;"/>
    </g>
    <g transform="matrix(1,0,0,1,50,0)">
        <path d="M629.613,429.52L628.317,448.105C627.829,455.11 621.685,460.485 614.677,460.037C607.949,459.608 602.643,453.953 602.643,447.211C602.643,444.802 603.32,442.442 604.597,440.399L615.041,423.69C621.211,399.639 616.316,364.997 609.211,328.24L638.357,320.225C642.473,350.976 637.837,388.798 629.613,429.519L629.613,429.52Z" style="fill:rgb(255,184,184);fill-rule:nonzero;"/>
    </g>
    <g transform="matrix(1,0,0,1,50,0)">
        <path d="M582.846,195.216C582.846,195.216 587.299,185.419 575.721,180.966C575.721,180.966 565.924,164.934 546.33,175.622C546.33,175.622 532.97,180.966 532.97,195.216C532.97,209.466 528.517,212.138 528.517,212.138C528.517,212.138 535.149,205.334 536.93,199.991C538.711,194.648 552.564,193.434 557.908,198.778C563.252,204.122 576.611,203.231 576.611,203.231L575.721,222.825C575.721,222.825 580.174,211.247 581.955,211.247C583.736,211.247 585.517,195.216 582.845,195.216L582.846,195.216Z" style="fill:rgb(47,46,65);fill-rule:nonzero;"/>
    </g>
    <g transform="matrix(1,0,0,1,50,0)">
        <path d="M648.558,320.953L599.739,334.797L599.739,249.547L606.22,251.644C617.695,255.356 626.701,264.386 630.385,275.87L648.558,320.953ZM224.969,644.458L831.065,644.458L831.065,646.458L224.969,646.458L224.969,644.458Z" style="fill:rgb(230,230,230);fill-rule:nonzero;"/>
    </g>
    <g transform="matrix(1,0,0,1,50,0)">
        <path d="M682.64,483.062C695.89,501.792 699.39,608.392 700.17,642.562C700.19,643.332 700.21,644.062 700.22,644.752L733.76,644.752C734.17,644.022 734.55,643.302 734.91,642.562C754.79,603.322 743.76,556.272 743.18,553.892C744.69,561.372 737.86,583.052 730.14,604.052C725.43,539.482 685.16,486.322 682.64,483.062Z" style="fill:rgb(230,230,230);fill-rule:nonzero;"/>
    </g>
</svg>
